src/main/resources/icons/NodeJSIcons/com/jetbrains/nodejs/icons/OpenV8HeapSnapshot_ToolWin.svg

<svg xmlns="http://www.w3.org/2000/svg" width="13" height="13" viewBox="0 0 13 13">
  <g fill="none" fill-rule="evenodd">
    <path fill="#6E6E6E" d="M9,2 L12,2 L12,3 L9,3 L9,4.62423372 C7.55425553,4.99304052 6.5,6.14099116 6.5,7.5 C6.5,8.04643072 6.67044,8.55873995 6.96823768,9 L3,9 L3,7 L0,7 L0,6 L3,6 L3,5 L0,5 L0,4 L3,4 L3,3 L0,3 L0,2 L3,2 L3,0 L9,0 L9,2 Z"/>
    <path fill="#737373" d="M10.0499998,12.6999999 C8.49999981,12.6999999 7.34999981,11.8999999 7.34999981,10.6799999 L7.34999981,10.6599999 C7.34999981,9.8099999 7.73999981,9.3099999 8.47999981,8.9699999 C7.93999981,8.6399999 7.58999981,8.1899999 7.58999981,7.4399999 L7.58999981,7.4199999 C7.58999981,6.3499999 8.56999981,5.4999999 10.0499998,5.4999999 C11.5299998,5.4999999 12.5099998,6.3399999 12.5099998,7.4199999 L12.5099998,7.4399999 C12.5099998,8.1899999 12.1599998,8.6399999 11.6199998,8.9699999 C12.3299998,9.3399999 12.7499998,9.7899999 12.7499998,10.6199999 L12.7499998,10.6399999 C12.7499998,11.9399999 11.5999998,12.6999999 10.0499998,12.6999999 Z M10.0499998,8.4599999 C10.6599998,8.4599999 11.0499998,8.0999999 11.0499998,7.6099999 L11.0499998,7.5899999 C11.0499998,7.1599999 10.6799998,6.7699999 10.0499998,6.7699999 C9.41999981,6.7699999 9.04999981,7.1499999 9.04999981,7.5799999 L9.04999981,7.5999999 C9.04999981,8.0899999 9.43999981,8.4599999 10.0499998,8.4599999 Z M10.0499998,11.4299999 C10.8099998,11.4299999 11.2599998,11.0499999 11.2599998,10.5599999 L11.2599998,10.5399999 C11.2599998,9.9999999 10.7499998,9.6799999 10.0499998,9.6799999 C9.34999981,9.6799999 8.83999981,9.9999999 8.83999981,10.5399999 L8.83999981,10.5599999 C8.83999981,11.0399999 9.28999981,11.4299999 10.0499998,11.4299999 Z"/>
  </g>
</svg>

<svg xmlns="http://www.w3.org/2000/svg" width="13" height="13" viewBox="0 0 13 13"><rect id="frame" width="13" height="13" fill="none"/><g fill="none" fill-rule="evenodd"><path fill="#6E6E6E" d="M9 2h3v1H9v1.624C7.554 4.993 6.5 6.141 6.5 7.5c0 .546.17 1.059.468 1.5H3V7H0V6h3V5H0V4h3V3H0V2h3V0h6v2z"/><path fill="#737373" d="M10.05 12.7c-1.55 0-2.7-.8-2.7-2.02v-.02c0-.85.39-1.35 1.13-1.69-.54-.33-.89-.78-.89-1.53v-.02c0-1.07.98-1.92 2.46-1.92s2.46.84 2.46 1.92v.02c0 .75-.35 1.2-.89 1.53.71.37 1.13.82 1.13 1.65v.02c0 1.3-1.15 2.06-2.7 2.06zm0-4.24c.61 0 1-.36 1-.85v-.02c0-.43-.37-.82-1-.82s-1 .38-1 .81v.02c0 .49.39.86 1 .86zm0 2.97c.76 0 1.21-.38 1.21-.87v-.02c0-.54-.51-.86-1.21-.86s-1.21.32-1.21.86v.02c0 .48.45.87 1.21.87z"/></g></svg>
